!!!SOCIAL_FUNCTION:	songs received from animals
!!!PDT:	1918

Specific Region: Dakotas, Minnesota, Montana, Nebraska
!!!REG: Dakotas and Montana
!!!LING_GROUP: Siouan
!!!LANG: Tone
!!!OTL@ENG: A Blacktail Deer
!!!ONM: No. 56
**kern
*Imale
*clefF4
*k[b-e-]
*M2/4
*>[A,B,B]
*>norep[A,B]
*>A
*MM84
4d
8d
8f
=2
4d
([4d
=3
4.d]
8A)
*>B
=4!|:
4A
8A
8c
=5
4A
([4A
=6
4.A]
8G)
=7
8G
[8A
8A]
8G
=8
4G
4G
=9
8G
[8G
4G]
=10
16G
8.G
(8F
8D)
=11||
*M3/4
2.F
=12||
*M2/4
4F
8F
8G
=13
4D
[4D
=14
2D]
=15||
*M3/4
16C
8.D
4D
8D
8C
=16||
*M2/4
4BB-
(8C
8BB-)
=17
4GG
4BB-
=18||
*M3/4
2.GG
=19||
*M2/4
2GG
==:|!
*-
!!!CNT: Native American -- Sioux
!!!MRD: 1911/07//-1914///
!!!OCL: Frances Densmore
!!!YOR1: Teton Sioux Music, Bulletin 61,
!!!YOR2: Bureau of American Ethnology, Smithsonian Institution
!!!PPR: Government Printing Office
!!!PPP: Washington, D.C.
!!!PDT: 1918///
!!!ENC: Craig Stuart Sapp
!!!END: 2002/03/25/
!!!EEV: 2002/03/31/
!!!AGN: Song of Personal Dreams/Song Received from Animals
!!!MPN@@SIO: Waking'yan-wata'kpe
!!!MPN@ENG: Charging Thunder
!!!TXO: Teton Sioux
!!!MLC: Standing Rock Reservation, South Dakota, United States of America
!!!ARL: 45.9/-100.7#
!!!catalog: Catalogue No. 564
!!!PPG: 194
!!!EFL: 56/245
!!!VTS: 1278068238
